assets/spark/icons/ConversationOutline.svg

<svg viewBox="0 0 24 24" xmlns="http://www.w3.org/2000/svg">
<path fill-rule="evenodd" clip-rule="evenodd" d="M13.0146 15.2964H9.18162V15.288H6.25887L3.60334 17.2934C3.29436 17.5209 2.89353 17.5546 2.55115 17.3861C2.21712 17.2176 2 16.8637 2 16.4845V6.37317C2 3.95488 3.94572 1.9916 6.34237 2.00003H13.0898C15.4363 2.00003 17.357 3.88747 17.357 6.27206V10.9401C17.3403 13.35 15.4029 15.2964 13.0146 15.2964ZM5.92484 13.2741H7.16909L7.17744 13.2826H13.0313C14.3257 13.2826 15.3695 12.2377 15.3695 10.9401V6.27206C15.3695 5.01657 14.3674 4.01386 13.1065 4.01386H6.33402C5.03966 4.01386 3.99582 5.06713 3.99582 6.37317V14.4707L5.32359 13.4764C5.49895 13.3416 5.70772 13.2741 5.92484 13.2741Z"/>
<path d="M19.0438 9.55825V7.30848H19.0522C20.7641 7.89831 22 9.51612 22 11.4373V20.9925C22 21.3716 21.7912 21.7255 21.4489 21.8941C21.1065 22.0626 20.6973 22.0289 20.3967 21.8014L17.858 19.8886H11.5282C9.64929 19.8886 8.06265 18.6753 7.4614 16.9816H9.71609C10.142 17.5125 10.7933 17.8664 11.5282 17.8664H18.1837C18.4008 17.8664 18.6096 17.9422 18.785 18.0686L19.9875 18.9786V11.4373C19.9875 10.6705 19.6117 9.98798 19.0438 9.55825Z"/>
</svg>

<svg viewBox="0 0 24 24" xmlns="http://www.w3.org/2000/svg">
  <path d="m13.01,15.3h-3.83s-2.92,0-2.92,0l-2.66,2.01c-.31.23-.71.26-1.05.09-.33-.17-.55-.52-.55-.9V6.37c0-2.42,1.95-4.38,4.34-4.37h6.75c2.35,0,4.27,1.89,4.27,4.27v4.67c-.02,2.41-1.95,4.36-4.34,4.36Zm-7.09-2.02h1.25s5.85,0,5.85,0c1.29,0,2.34-1.04,2.34-2.34v-4.67c0-1.26-1-2.26-2.26-2.26h-6.77c-1.29,0-2.34,1.05-2.34,2.36v8.1l1.33-.99c.18-.13.38-.2.6-.2Z"/>
  <path d="m19.04,9.56v-2.25h0c1.71.59,2.95,2.21,2.95,4.13v9.56c0,.38-.21.73-.55.9-.34.17-.75.13-1.05-.09l-2.54-1.91h-6.33c-1.88,0-3.47-1.21-4.07-2.91h2.25c.43.53,1.08.88,1.81.88h6.66c.22,0,.43.08.6.2l1.2.91v-7.54c0-.77-.38-1.45-.94-1.88Z"/>
</svg>
